images/delivery_man.svg

<svg width="130" height="159" viewBox="0 0 130 159" fill="none" xmlns="http://www.w3.org/2000/svg">
<path d="M87.1329 33.2669C95.254 33.2669 102.078 27.7249 104.033 20.2179L109.5 21.0319C109.607 21.0479 109.715 21.0559 109.82 21.0559C110.871 21.0559 111.791 20.2859 111.951 19.2159C112.127 18.0379 111.312 16.9399 110.135 16.7649L104.594 15.9399C104.596 15.8939 104.598 15.8489 104.598 15.8019C104.598 15.6199 104.592 15.4399 104.584 15.2599C104.584 15.2599 104.133 8.74194 103.51 6.02294C102.889 3.30394 100.975 2.72694 100.975 2.72694C91.2049 0.514941 81.2029 0.28894 78.5999 0.28894C75.9969 0.28894 75.4419 1.62094 75.4419 1.62094L72.2919 6.61694L72.2819 6.61394C72.2059 6.73594 72.136 6.85894 72.063 6.98194L72.0359 7.02494C70.5339 9.60494 69.6689 12.6009 69.6689 15.8019C69.6679 25.4479 77.4879 33.2669 87.1329 33.2669Z" fill="white"/>
<path d="M125.535 72.576V72.574L98.7929 70.406L89.5469 49.294C89.5469 49.294 89.0859 46.52 83.5389 40.818C77.9899 35.116 66.7399 37.428 66.7399 37.428C66.7399 37.428 42.8539 41.897 34.9949 43.746C27.1349 45.596 26.8269 53.609 26.8269 53.609L26.1949 58.128L11.0169 55.187C10.8259 55.15 10.6359 55.132 10.4489 55.132C9.04195 55.132 7.77795 56.132 7.50095 57.561L0.0899456 95.803C-0.224054 97.423 0.843946 99.005 2.46495 99.319L53.6609 109.242C53.7759 109.264 53.8909 109.266 54.0069 109.275H54.0089C53.2809 109.379 52.7179 109.24 52.7179 109.24L43.3179 107.391L40.2359 124.496L16.6759 144.859C14.9749 146.22 13.8839 148.312 13.8839 150.66C13.8839 154.764 17.2099 158.09 21.3129 158.09C23.3479 158.09 25.1909 157.272 26.5329 155.945C26.5329 155.945 54.2579 133.895 56.1079 132.354C57.9579 130.814 58.8809 128.501 58.8809 128.501C58.8809 128.501 63.422 114.553 64.66 111.627C65.5079 109.623 69.5919 110.548 69.5919 110.548L92.4769 119.179L100.092 148.241C100.174 148.871 100.334 149.475 100.565 150.045H100.567C101.665 152.773 104.337 154.699 107.456 154.699C111.56 154.699 114.886 151.372 114.886 147.269C114.886 146.67 114.814 146.09 114.679 145.533C113.837 140.568 110.075 118.487 109.118 113.707C108.04 108.313 104.497 106.773 104.497 106.773C104.497 106.773 83.229 95.215 81.8429 94.444C80.4559 93.674 80.7649 91.67 80.7649 91.67L84.6949 77.339L87.4679 83.195C87.4679 83.195 89.087 86.469 91.5519 86.586L124.909 87.406C129.013 87.406 132.339 84.08 132.339 79.975C132.338 76.086 129.346 72.896 125.535 72.576ZM54.1039 57.307L52.3149 63.187L62.2129 65.106L41.9989 61.189L42.5469 58.693L54.1039 57.307ZM51.8549 102.78L6.55095 93.999L12.8209 61.646L25.3629 64.077L23.7449 75.644L23.1049 80.05C23.0999 80.076 23.0969 80.106 23.0929 80.132L23.0749 80.259H23.0769C23.0369 80.571 23.0139 80.888 23.0139 81.21C23.0139 85.314 26.3409 88.639 30.4439 88.639C34.5469 88.639 37.8729 85.314 37.8729 81.21C37.8729 80.892 37.8519 80.58 37.8119 80.273L40.7129 67.05L58.1259 70.424L51.8549 102.78Z" fill="white"/>
<path d="M19.05 11.508H57.077C58.177 11.508 59.0771 10.612 59.0771 9.51795C59.0771 8.42395 58.177 7.52795 57.077 7.52795H19.05C17.95 7.52795 17.05 8.42395 17.05 9.51795C17.05 10.612 17.95 11.508 19.05 11.508Z" fill="white"/>
<path d="M32.0798 17.5249C30.9798 17.5249 30.0798 18.4209 30.0798 19.5149C30.0798 20.6089 30.9798 21.5049 32.0798 21.5049H55.0388C56.1388 21.5049 57.0388 20.6089 57.0388 19.5149C57.0388 18.4199 56.1388 17.5249 55.0388 17.5249H32.0798Z" fill="white"/>
</svg>

<svg width="130" height="159" fill="none" xmlns="http://www.w3.org/2000/svg"><path d="M87.13 33.27c8.12 0 14.95-5.55 16.9-13.05l5.47.81a2.16 2.16 0 0 0 .64-4.27l-5.55-.82v-.68s-.46-6.52-1.08-9.24c-.62-2.72-2.54-3.3-2.54-3.3A111.85 111.85 0 0 0 78.6.3c-2.6 0-3.16 1.33-3.16 1.33l-3.15 5-.23.36-.02.04a17.46 17.46 0 0 0 15.1 26.24ZM125.53 72.58 98.8 70.4l-9.24-21.12s-.46-2.77-6.01-8.47c-5.55-5.7-16.8-3.4-16.8-3.4s-23.89 4.48-31.75 6.33c-7.86 1.85-8.16 9.86-8.16 9.86l-.64 4.52-15.17-2.94a2.99 2.99 0 0 0-3.52 2.37L.1 95.8a3 3 0 0 0 2.37 3.52l51.2 9.92.35.04c-.73.1-1.3-.04-1.3-.04l-9.4-1.85-3.07 17.1-23.56 20.37a7.41 7.41 0 0 0 4.63 13.23 7.4 7.4 0 0 0 5.22-2.15s27.73-22.04 29.58-23.59c1.85-1.54 2.77-3.85 2.77-3.85s4.54-13.95 5.78-16.87c.85-2 4.93-1.08 4.93-1.08l22.89 8.63 7.61 29.06a7.43 7.43 0 1 0 14.59-2.7c-.84-4.97-4.6-27.05-5.56-31.83-1.08-5.4-4.62-6.94-4.62-6.94S83.23 95.22 81.84 94.44c-1.38-.77-1.08-2.77-1.08-2.77l3.93-14.33 2.78 5.85s1.62 3.28 4.08 3.4l33.36.82a7.43 7.43 0 0 0 .63-14.83ZM54.1 57.3l-1.79 5.88 9.9 1.92L42 61.19l.55-2.5 11.55-1.38Zm-2.25 45.47L6.55 94l6.27-32.35 12.54 2.43-1.62 11.56-.64 4.41v.08l-.03.13a7.43 7.43 0 1 0 14.74.01l2.9-13.22 17.42 3.37-6.28 32.36ZM19.05 11.5h38.03a2 2 0 0 0 2-1.98 2 2 0 0 0-2-2H19.05a2 2 0 0 0-2 2 2 2 0 0 0 2 1.99ZM32.08 17.52a2 2 0 0 0-2 2 2 2 0 0 0 2 1.98h22.96a2 2 0 0 0 2-1.99 2 2 0 0 0-2-1.99H32.08Z" fill="#fff"/></svg>
